X: 38207
T: Springar
R: slip jig
M: 9/8
K: Aminor
|:efd|f2e e2c B2^G|A2B c2d efd|f2e e2c B2^G|A3 A3:|
|:efd|f2e e2c e2a|a2^g a2e efd|f2e e2c e2a|a2^g a2e efd|
f2e e2c B2^G|A2B c2d efd|f2e e2c B2^G|A3 A3:|

